austria/municipalities/40832.svg

<?xml version="1.0" encoding="UTF-8" standalone="no"?>
<svg
   xmlns:dc="http://purl.org/dc/elements/1.1/"
   xmlns:cc="http://creativecommons.org/ns#"
   xmlns:rdf="http://www.w3.org/1999/02/22-rdf-syntax-ns#"
   xmlns:svg="http://www.w3.org/2000/svg"
   xmlns="http://www.w3.org/2000/svg"
   xmlns:sodipodi="http://sodipodi.sourceforge.net/DTD/sodipodi-0.dtd"
   xmlns:inkscape="http://www.inkscape.org/namespaces/inkscape"
   version="1.0"
   width="100%"
   height="100%"
   viewBox="0 0 195 240"
   id="svg2"
   sodipodi:docname="AUT_Wallern_an_der_Trattnach_COA.svg"
   inkscape:version="0.92.2 (5c3e80d, 2017-08-06)">
  <metadata
     id="metadata24">
    <rdf:RDF>
      <cc:Work
         rdf:about="">
        <dc:format>image/svg+xml</dc:format>
        <dc:type
           rdf:resource="http://purl.org/dc/dcmitype/StillImage" />
      </cc:Work>
    </rdf:RDF>
  </metadata>
  <sodipodi:namedview
     id="namedview529249"
     pagecolor="#ffffff"
     bordercolor="#666666"
     borderopacity="1.0"
     inkscape:pageshadow="2"
     inkscape:pageopacity="0.0"
     inkscape:pagecheckerboard="0"
     showgrid="false"
     inkscape:zoom="2.1666667"
     inkscape:cx="-14.727393"
     inkscape:cy="194.98847"
     inkscape:window-width="1920"
     inkscape:window-height="1017"
     inkscape:window-x="-8"
     inkscape:window-y="-8"
     inkscape:window-maximized="1"
     inkscape:current-layer="svg2" />
  <defs
     id="defs4" />
  <g
     transform="matrix(1.7209129,0,0,1.7209129,-359.86354,-743.44206)"
     id="g3309">
    <path
       d="M 293.5,433.96875 L 293.5,561.03125 C 309.48465,550.83925 320.1875,532.46481 320.1875,511.46875 L 320.28125,433.96875 L 293.5,433.96875 z"
       id="rect3193"
       style="opacity:1;fill:#d50b2b;fill-opacity:1;fill-rule:nonzero;stroke:#000000;stroke-width:1;stroke-linecap:round;stroke-linejoin:miter;stroke-miterlimit:4;stroke-dasharray:none;stroke-dashoffset:4.3;stroke-opacity:1" />
    <path
       d="M 266,433.96875 L 266,569.5 C 276.06395,569.2567 285.441,566.16976 293.5,561.03125 L 293.5,433.96875 L 266,433.96875 z"
       id="rect3191"
       style="opacity:1;fill:#f5c801;fill-opacity:1;fill-rule:nonzero;stroke:#000000;stroke-width:1;stroke-linecap:round;stroke-linejoin:miter;stroke-miterlimit:4;stroke-dasharray:none;stroke-dashoffset:4.3;stroke-opacity:1" />
    <path
       d="M 278.21875,433.96875 C 282.74111,443.41743 284.9132,461.79364 286.25,484 C 280.84126,482.46641 274.84099,482.81919 266.25,477.5 L 266.25,501.5 C 271.12416,497.55103 279.38905,497.84049 286.75,497 C 285.40529,521.56168 284.81426,546.76937 279,567.5 L 279.1875,567.5 C 284.29272,566.05787 289.08861,563.87341 293.5,561.0625 L 293.25,433.96875 L 278.21875,433.96875 z"
       id="path3188"
       style="fill:#d50b2b;fill-opacity:1;fill-rule:nonzero;stroke:#000000;stroke-width:1.10000002;stroke-linecap:round;stroke-linejoin:miter;stroke-miterlimit:4;stroke-dasharray:none;stroke-dashoffset:4.3;stroke-opacity:1" />
    <path
       d="M 211.24943,433.96818 L 211.34318,511.36775 C 211.34318,542.97419 235.70016,568.70165 265.81305,569.3238 C 266.12657,569.31732 266.43834,569.30448 266.75057,569.29259 L 266.75057,433.96818 L 211.24943,433.96818 z"
       id="path3171"
       style="fill:#057843;fill-opacity:1;fill-rule:nonzero;stroke:#000000;stroke-width:1.79885197;stroke-linecap:round;stroke-linejoin:miter;stroke-miterlimit:4;stroke-dasharray:none;stroke-dashoffset:4.3;stroke-opacity:1" />
    <path
       d="M 293.875,433.96875 L 293.625,560.96875 C 297.65901,558.38228 301.35703,555.2934 304.625,551.75 C 299.7925,535.45879 300.45162,515.98639 300.375,497 C 307.73595,497.84049 315.21958,498.05103 320.09375,502 L 319.8652,477.63848 C 315.87374,481.5654 304.63013,483.28821 300.875,484 C 302.2118,461.79364 304.38389,443.41743 308.90625,433.96875 L 293.875,433.96875 z"
       id="path3185"
       style="fill:#f5c801;fill-opacity:1;fill-rule:nonzero;stroke:#000000;stroke-width:1.10000002;stroke-linecap:round;stroke-linejoin:miter;stroke-miterlimit:4;stroke-dasharray:none;stroke-dashoffset:4.3;stroke-opacity:1" />
    <path
       d="M 242.375,556 C 242.97961,551.27485 240.93826,545.60754 245.75,541.8125 C 256.15566,533.60555 259.58989,526.75119 256.625,524 C 252.8732,520.5186 248.28051,530.5089 247.125,524.25 C 245.70217,516.54306 260.15139,518.14628 258.65625,505.46875 C 258.55511,488.37283 249.11994,511.57961 247.125,500.75 C 245.24429,495.26142 261.33141,495.26772 258.875,479.53125 C 258.2314,468.37366 253.15059,481.85278 247.875,477 C 246.66968,473.37529 253.36312,468.91285 257.125,468.25 C 260.0169,467.74044 259.50549,452.20333 255.875,453.75 C 253.11134,454.92738 247.94059,461.15577 247.625,458 C 246.97408,451.49078 252.58067,450.2002 251.75,446.375 C 250.5647,440.91667 240.08889,437.46689 239.23438,438.3125 C 237.08555,438.19902 228.20723,441.39131 227.125,446.375 C 226.29434,450.2002 231.90092,451.49078 231.25,458 C 230.93442,461.15577 225.76366,454.92738 223,453.75 C 219.36952,452.20333 218.8581,467.74044 221.75,468.25 C 225.51189,468.91285 232.20532,473.37529 231,477 C 225.72442,481.85278 220.61235,468.37366 219.96875,479.53125 C 217.51233,495.26772 233.63071,495.26142 231.75,500.75 C 229.75507,511.57961 220.31989,488.37283 220.21875,505.46875 C 218.7236,518.14628 233.17283,516.54306 231.75,524.25 C 230.5945,530.5089 226.0018,520.5186 222.25,524 C 219.28512,526.75119 222.71934,533.60555 233.125,541.8125 C 237.93673,545.60754 235.89539,551.27485 236.5,556 L 242.375,556 z"
       id="path3205"
       style="fill:#f5c801;fill-opacity:1;fill-rule:evenodd;stroke:#0b1900;stroke-width:1.29999995;stroke-linecap:butt;stroke-linejoin:miter;stroke-miterlimit:4;stroke-dasharray:none;stroke-opacity:1" />
    <path
       d="M 239.49861,555.54845 L 239.25139,438.61316"
       id="path3210"
       style="fill:none;fill-rule:evenodd;stroke:#000000;stroke-width:0.98888201px;stroke-linecap:butt;stroke-linejoin:miter;stroke-opacity:1" />
    <path
       d="M 245.25,449.25 L 239.51517,456.73483"
       id="path3212"
       style="fill:none;fill-rule:evenodd;stroke:#000000;stroke-width:1px;stroke-linecap:round;stroke-linejoin:miter;stroke-opacity:1" />
    <path
       d="M 232.75,448 L 239.14645,456.66161"
       id="path3214"
       style="fill:none;fill-rule:evenodd;stroke:#000000;stroke-width:1px;stroke-linecap:round;stroke-linejoin:miter;stroke-opacity:1" />
    <path
       d="M 229.75,464.25 L 239.25,472.75"
       id="path3216"
       style="fill:none;fill-rule:evenodd;stroke:#000000;stroke-width:1px;stroke-linecap:round;stroke-linejoin:miter;stroke-opacity:1" />
    <path
       d="M 248,465.75 L 239.5,472.5"
       id="path3218"
       style="fill:none;fill-rule:evenodd;stroke:#000000;stroke-width:1px;stroke-linecap:round;stroke-linejoin:miter;stroke-opacity:1" />
    <path
       d="M 248.25,485.5 L 239.42678,495.39645"
       id="path3220"
       style="fill:none;fill-rule:evenodd;stroke:#000000;stroke-width:1px;stroke-linecap:round;stroke-linejoin:miter;stroke-opacity:1" />
    <path
       d="M 228,484.5 L 239.14645,495.48483"
       id="path3222"
       style="fill:none;fill-rule:evenodd;stroke:#000000;stroke-width:1px;stroke-linecap:round;stroke-linejoin:miter;stroke-opacity:1" />
    <path
       d="M 229.63293,508.70058 L 239.26726,519.13041"
       id="path3224"
       style="fill:none;fill-rule:evenodd;stroke:#000000;stroke-width:1px;stroke-linecap:round;stroke-linejoin:miter;stroke-opacity:1" />
    <path
       d="M 248.72481,509.76124 L 239.53243,518.51168"
       id="path3226"
       style="fill:none;fill-rule:evenodd;stroke:#000000;stroke-width:1px;stroke-linecap:round;stroke-linejoin:miter;stroke-opacity:1" />
    <path
       d="M 245.54283,531.15122 L 239.35565,537.86873"
       id="path3228"
       style="fill:none;fill-rule:evenodd;stroke:#000000;stroke-width:1px;stroke-linecap:round;stroke-linejoin:miter;stroke-opacity:1" />
    <path
       d="M 232.28458,530.09056 L 239.35565,538.04551"
       id="path3230"
       style="fill:none;fill-rule:evenodd;stroke:#000000;stroke-width:1px;stroke-linecap:round;stroke-linejoin:miter;stroke-opacity:1" />
    <path
       d="M 265.80835,569.50104 C 295.9206,568.87809 320.19393,543.11911 320.19393,511.47165 L 320.28595,433.98155 L 211.25107,433.98155 L 211.34309,511.47165 C 211.34309,543.1191 235.69608,568.87809 265.80835,569.50104 z"
       id="path3357"
       style="fill:none;fill-opacity:1;fill-rule:nonzero;stroke:#000000;stroke-width:1.79999995;stroke-linecap:round;stroke-linejoin:miter;stroke-miterlimit:4;stroke-dasharray:none;stroke-dashoffset:4.3;stroke-opacity:1" />
  </g>
</svg>

<svg xmlns="http://www.w3.org/2000/svg" version="1.0" viewBox="0 0 195 240"><path d="M293.5 433.969V561.03c15.985-10.192 26.688-28.566 26.688-49.562l.093-77.5H293.5z" style="opacity:1;fill:#d50b2b;fill-opacity:1;fill-rule:nonzero;stroke:#000;stroke-width:1;stroke-linecap:round;stroke-linejoin:miter;stroke-miterlimit:4;stroke-dasharray:none;stroke-dashoffset:4.3;stroke-opacity:1" transform="matrix(1.72091 0 0 1.72091 -359.864 -743.442)"/><path d="M266 433.969V569.5c10.064-.243 19.441-3.33 27.5-8.469V433.97H266z" style="opacity:1;fill:#f5c801;fill-opacity:1;fill-rule:nonzero;stroke:#000;stroke-width:1;stroke-linecap:round;stroke-linejoin:miter;stroke-miterlimit:4;stroke-dasharray:none;stroke-dashoffset:4.3;stroke-opacity:1" transform="matrix(1.72091 0 0 1.72091 -359.864 -743.442)"/><path d="M278.219 433.969c4.522 9.448 6.694 27.825 8.031 50.031-5.409-1.534-11.409-1.18-20-6.5v24c4.874-3.949 13.139-3.66 20.5-4.5-1.345 24.562-1.936 49.77-7.75 70.5h.188a53.842 53.842 0 0 0 14.312-6.438l-.25-127.093h-15.031z" style="fill:#d50b2b;fill-opacity:1;fill-rule:nonzero;stroke:#000;stroke-width:1.10000002;stroke-linecap:round;stroke-linejoin:miter;stroke-miterlimit:4;stroke-dasharray:none;stroke-dashoffset:4.3;stroke-opacity:1" transform="matrix(1.72091 0 0 1.72091 -359.864 -743.442)"/><path d="m211.25 433.968.093 77.4c0 31.606 24.357 57.334 54.47 57.956.314-.007.625-.02.938-.031V433.968h-55.502z" style="fill:#057843;fill-opacity:1;fill-rule:nonzero;stroke:#000;stroke-width:1.79885197;stroke-linecap:round;stroke-linejoin:miter;stroke-miterlimit:4;stroke-dasharray:none;stroke-dashoffset:4.3;stroke-opacity:1" transform="matrix(1.72091 0 0 1.72091 -359.864 -743.442)"/><path d="m293.875 433.969-.25 127a56.259 56.259 0 0 0 11-9.219c-4.832-16.291-4.173-35.764-4.25-54.75 7.361.84 14.845 1.051 19.719 5l-.229-24.362c-3.991 3.927-15.235 5.65-18.99 6.362 1.337-22.206 3.509-40.583 8.031-50.031h-15.031z" style="fill:#f5c801;fill-opacity:1;fill-rule:nonzero;stroke:#000;stroke-width:1.10000002;stroke-linecap:round;stroke-linejoin:miter;stroke-miterlimit:4;stroke-dasharray:none;stroke-dashoffset:4.3;stroke-opacity:1" transform="matrix(1.72091 0 0 1.72091 -359.864 -743.442)"/><path d="M242.375 556c.605-4.725-1.437-10.392 3.375-14.188 10.406-8.206 13.84-15.06 10.875-17.812-3.752-3.481-8.344 6.509-9.5.25-1.423-7.707 13.026-6.104 11.531-18.781-.1-17.096-9.536 6.11-11.531-4.719-1.88-5.489 14.206-5.482 11.75-21.219-.644-11.157-5.724 2.322-11-2.531-1.205-3.625 5.488-8.087 9.25-8.75 2.892-.51 2.38-16.047-1.25-14.5-2.764 1.177-7.934 7.406-8.25 4.25-.65-6.51 4.956-7.8 4.125-11.625-1.185-5.458-11.661-8.908-12.516-8.063-2.148-.113-11.027 3.08-12.109 8.063-.83 3.825 4.776 5.116 4.125 11.625-.316 3.156-5.486-3.073-8.25-4.25-3.63-1.547-4.142 13.99-1.25 14.5 3.762.663 10.455 5.125 9.25 8.75-5.276 4.853-10.388-8.626-11.031 2.531-2.457 15.737 13.662 15.73 11.781 21.219-1.995 10.83-11.43-12.377-11.531 4.719-1.495 12.677 12.954 11.074 11.531 18.781-1.155 6.259-5.748-3.731-9.5-.25-2.965 2.751.47 9.606 10.875 17.813 4.812 3.795 2.77 9.462 3.375 14.187h5.875z" style="fill:#f5c801;fill-opacity:1;fill-rule:evenodd;stroke:#0b1900;stroke-width:1.29999995;stroke-linecap:butt;stroke-linejoin:miter;stroke-miterlimit:4;stroke-dasharray:none;stroke-opacity:1" transform="matrix(1.72091 0 0 1.72091 -359.864 -743.442)"/><path d="m239.499 555.548-.248-116.935" style="fill:none;fill-rule:evenodd;stroke:#000;stroke-width:.98888201px;stroke-linecap:butt;stroke-linejoin:miter;stroke-opacity:1" transform="matrix(1.72091 0 0 1.72091 -359.864 -743.442)"/><path d="m245.25 449.25-5.735 7.485M232.75 448l6.396 8.662M229.75 464.25l9.5 8.5M248 465.75l-8.5 6.75M248.25 485.5l-8.823 9.896M228 484.5l11.146 10.985M229.633 508.7l9.634 10.43M248.725 509.761l-9.193 8.75M245.543 531.151l-6.187 6.718M232.285 530.09l7.07 7.956" style="fill:none;fill-rule:evenodd;stroke:#000;stroke-width:1px;stroke-linecap:round;stroke-linejoin:miter;stroke-opacity:1" transform="matrix(1.72091 0 0 1.72091 -359.864 -743.442)"/><path d="M265.808 569.501c30.113-.623 54.386-26.382 54.386-58.03l.092-77.49H211.251l.092 77.49c0 31.648 24.353 57.407 54.465 58.03z" style="fill:none;fill-opacity:1;fill-rule:nonzero;stroke:#000;stroke-width:1.79999995;stroke-linecap:round;stroke-linejoin:miter;stroke-miterlimit:4;stroke-dasharray:none;stroke-dashoffset:4.3;stroke-opacity:1" transform="matrix(1.72091 0 0 1.72091 -359.864 -743.442)"/></svg>
